X:2643
T:Hornless Cow, The
O:england
R:reel
D:Paddy Glackin: In Full Spate
M:C|
K:D
FA~A2 GFEd|cAec dABG|FGAF GFGA|1 BGFD EDDE:|2 BGFD EDDg||
fd~d2 gfeg|fded BdAg|fdfa gfed|ceag fdde|
fdfa gfeg|fdfe dcAG|FGAF GFGA|BGFD EDDE||


